X:6849
T:Hart's Scotch Set,#2. JNu.52
M:2/4
L:1/8
Q:200
S:James Nuttall MS,c1830,Rossendale,East Lancs.
R:Quadrille
O:England
A:East Lancashire
Z:vmp.Manchester Morris Men
K:D
D/E/|"p"FA G/F/E/D/|d3/2c/2 e/d/c/B/|A3/2A/2 B/A/G/F/|
F2 ED/E/|!
F3/2A/2 G/F/E/D/|d3/2c/2 e/d/c/B/|Af e/d/e/f/|d3::!
A/A/|"f"d3/2c/2 Bc/d/|ec AA/A/|Bc de|d2 cA|!
G/F/E/D/ AA|B/A/B/c/ e/d/c/B/|A/d/f/d/ e/d/e/f/|
d/f/a/f/ dA|!d3/2c/2 e/d/c/B/|
AF DA|dc/B/ e3/2d/2|c3/2d/2 B3/2c/2 AA|!
G/F/E/D/ AA|B/A/B/c/ e/d/c/B/|Af e/d/e/f/|d3|]
